dist/svg/u1F309.svg

<?xml version="1.0" encoding="UTF-8"?><svg id="Layer_1" xmlns="http://www.w3.org/2000/svg" viewBox="0 0 40 40"><rect x="3.5" y="3.5" width="33" height="33" rx="8" ry="8" style="fill:#2e3d51;"/><g><circle cx="26.46394" cy="8.07549" r=".9" style="fill:#fff;"/><circle cx="21.95673" cy="13.70125" r=".9" style="fill:#fff;"/><circle cx="31.73072" cy="16.82702" r=".72" style="fill:#fbd018;"/><circle cx="8.81237" cy="8.39259" r=".72" style="fill:#fff;"/><circle cx="17.64486" cy="9.39259" r=".9" style="fill:#ffda16;"/><circle cx="7.9086" cy="16.37208" r=".9" style="fill:#fff;"/><path d="M14.2081,11.84048l.19697,.98865c.01586,.07958,.06986,.14627,.1444,.17833l.92609,.39822c.18773,.08072,.20141,.34167,.02314,.44158l-.87939,.49284c-.07079,.03967-.11752,.11164-.12497,.19244l-.09255,1.00382c-.01876,.20349-.26271,.29713-.41281,.15846l-.74047-.68406c-.05961-.05506-.14249-.07727-.22164-.05939l-.98329,.22218c-.19933,.04504-.36377-.15804-.27828-.34364l.42176-.91561c.03395-.0737,.02946-.1594-.01201-.22915l-.51516-.86651c-.10443-.17565,.03789-.3948,.24083-.37085l1.00113,.11818c.08059,.00951,.1607-.02124,.21422-.08223l.66491-.75771c.13479-.1536,.38719-.08597,.42712,.11445Z" style="fill:#ffda16;"/><path d="M29.80303,10.27895l-.17196,.8631c-.01384,.06948-.06099,.12769-.12607,.15568l-.80848,.34765c-.16389,.07047-.17583,.29828-.0202,.3855l.76771,.43025c.0618,.03463,.1026,.09746,.1091,.168l.0808,.87634c.01638,.17765,.22935,.2594,.36039,.13834l.64643-.59718c.05204-.04807,.1244-.06746,.1935-.05185l.85842,.19396c.17401,.03932,.31758-.13797,.24294-.3l-.3682-.79933c-.02964-.06434-.02572-.13915,.01048-.20005l.44973-.75647c.09117-.15335-.03308-.34467-.21025-.32375l-.87399,.10317c-.07035,.0083-.14029-.01854-.18702-.07179l-.58047-.66148c-.11767-.13409-.33802-.07505-.37288,.09991Z" style="fill:#fff;"/></g><path d="M20.98145,16.9873c-.21777-.32715-.58594-.52344-.97949-.52441h-.00293c-.3916,0-.75879,.19629-.97852,.52148-.19824,.29492-4.97461,7.21094-15.52051,7.21094v2.35547c1.25439,0,2.42963-.09546,3.54102-.25439v2.20361h1.41406v-2.44824c.82812-.17114,1.61383-.37927,2.35547-.61877v3.06702h1.41406v-3.57397c.85211-.34155,1.63373-.72119,2.35645-1.11902v4.69299h1.41406v-5.54614c1.40265-.92139,2.49646-1.87305,3.29785-2.67969v8.22583h1.41406v-8.22583c.80139,.80664,1.8952,1.7583,3.29785,2.67969v5.54614h1.41406v-4.69299c.72272,.39783,1.50433,.77747,2.35645,1.11902v3.57397h1.41406v-3.06702c.74164,.2395,1.52734,.44763,2.35547,.61877v2.44824h1.41406v-2.20361c1.11139,.15894,2.28662,.25439,3.54102,.25439v-2.35547c-10.5459,0-15.32227-6.91602-15.51855-7.20801Z" style="fill:#ef4452;"/><rect x="3.5" y="3.5" width="33" height="33" rx="8" ry="8" style="fill:none;"/><rect x="0" width="40" height="40" style="fill:none;"/></svg>

<svg id="Layer_1" data-name="Layer 1" xmlns="http://www.w3.org/2000/svg" viewBox="0 0 40 40"><defs><style>.cls-1{fill:#2e3d51;}.cls-2{fill:#fff;}.cls-3{fill:#fbd018;}.cls-4{fill:#ffda16;}.cls-5{fill:#ef4452;}.cls-6{fill:none;}</style></defs><rect class="cls-1" x="3.5" y="3.5" width="33" height="33" rx="8"/><circle class="cls-2" cx="26.464" cy="8.075" r="0.9"/><circle class="cls-2" cx="21.957" cy="13.701" r="0.9"/><circle class="cls-3" cx="31.731" cy="16.827" r="0.72"/><circle class="cls-2" cx="8.812" cy="8.393" r="0.72"/><circle class="cls-4" cx="17.645" cy="9.393" r="0.9"/><circle class="cls-2" cx="7.909" cy="16.372" r="0.9"/><path class="cls-4" d="M14.208,11.84l.2.989a.246.246,0,0,0,.144.178l.927.4a.246.246,0,0,1,.023.441l-.88.493a.251.251,0,0,0-.125.193l-.092,1a.247.247,0,0,1-.413.159l-.74-.684a.248.248,0,0,0-.222-.06l-.983.223a.247.247,0,0,1-.279-.344l.422-.916a.245.245,0,0,0-.012-.229l-.515-.866a.247.247,0,0,1,.241-.371l1,.118a.247.247,0,0,0,.214-.082l.665-.758A.246.246,0,0,1,14.208,11.84Z"/><path class="cls-2" d="M29.8,10.279l-.172.863a.215.215,0,0,1-.126.156l-.808.347a.216.216,0,0,0-.021.386l.768.43a.215.215,0,0,1,.109.168l.081.876a.215.215,0,0,0,.36.139l.647-.6A.214.214,0,0,1,30.834,13l.859.194a.215.215,0,0,0,.243-.3l-.369-.8a.218.218,0,0,1,.011-.2l.45-.756a.216.216,0,0,0-.211-.324l-.874.1a.214.214,0,0,1-.187-.071l-.58-.662A.215.215,0,0,0,29.8,10.279Z"/><path class="cls-5" d="M20.981,16.987A1.178,1.178,0,0,0,20,16.463h0a1.181,1.181,0,0,0-.978.521c-.2.295-4.975,7.211-15.521,7.211v2.356A24.892,24.892,0,0,0,7.041,26.3v2.2H8.455V26.052a22.581,22.581,0,0,0,2.356-.619V28.5h1.414V24.926a21.412,21.412,0,0,0,2.356-1.119V28.5H16V22.954a20.6,20.6,0,0,0,3.3-2.68V28.5h1.414V20.274a20.6,20.6,0,0,0,3.3,2.68V28.5h1.414V23.807a21.412,21.412,0,0,0,2.356,1.119V28.5h1.414V25.433a22.581,22.581,0,0,0,2.356.619V28.5h1.414V26.3a24.892,24.892,0,0,0,3.541.255V24.2C25.954,24.2,21.178,17.279,20.981,16.987Z"/><rect class="cls-6" x="3.5" y="3.5" width="33" height="33" rx="8"/><rect class="cls-6" width="40" height="40"/></svg>
